libs/ui/packages/crypto-icons/src/svg/MUSIC.svg

<svg width="24" height="24" viewBox="0 0 24 24" fill="none">
<path fill-rule="evenodd" clip-rule="evenodd" d="M12.0011 24C10.8309 23.9995 9.66713 23.8279 8.5466 23.4907C10.8011 23.091 12.4616 21.7695 12.4616 20.2057C12.4616 20.0243 15.1406 5.58825 15.1406 5.58825C15.1406 5.58825 19.2131 6.20625 20.6193 10.4362C20.6193 10.4362 22.4373 7.98825 20.3651 3.40575C22.5552 5.53721 23.9364 8.49045 23.9989 11.7675C23.875 5.2474 18.5508 0 12.0011 0C12.6672 0.00124423 13.332 0.0579401 13.9886 0.1695L10.9466 17.8425C9.96485 17.1998 8.5946 16.8 7.0796 16.8C4.87385 16.8 2.9711 17.6362 2.1461 18.8483C0.801349 16.8975 0.00109863 14.5455 0.00109863 12C0.00109863 18.6274 5.37368 24 12.0011 24Z" fill="#FBBF02"/>
</svg>

<svg width="24" height="24" viewBox="0 0 24 24" fill="none"><path fill="#fbbf02" fill-rule="evenodd" d="M12.001 24c-1.17 0-2.334-.172-3.454-.51 2.254-.399 3.915-1.72 3.915-3.284 0-.182 2.679-14.618 2.679-14.618s4.072.618 5.478 4.848c0 0 1.818-2.448-.254-7.03A11.96 11.96 0 0 1 24 11.768C23.875 5.248 18.55 0 12 0a12 12 0 0 1 1.988.17l-3.042 17.673C9.965 17.2 8.595 16.8 7.08 16.8c-2.206 0-4.109.836-4.934 2.048A12 12 0 0 1 .001 12c0 6.627 5.373 12 12 12" clip-rule="evenodd"/></svg>
